modules/framework7-icons/icons/money_rubl_fill.svg

<?xml version="1.0" encoding="UTF-8"?>
<svg width="50px" height="50px" viewBox="0 0 50 50" version="1.1" xmlns="http://www.w3.org/2000/svg" xmlns:xlink="http://www.w3.org/1999/xlink">
    <!-- Generator: Sketch 40.1 (33804) - http://www.bohemiancoding.com/sketch -->
    <title>money_rubl_fill</title>
    <desc>Created with Sketch.</desc>
    <defs></defs>
    <g id="Page-1" stroke="none" stroke-width="1" fill="none" fill-rule="evenodd">
        <g id="money_rubl_fill" fill="#000000">
            <path d="M25,50 C38.8071187,50 50,38.8071187 50,25 C50,11.1928813 38.8071187,0 25,0 C11.1928813,0 0,11.1928813 0,25 C0,38.8071187 11.1928813,50 25,50 Z M21.2421875,14.7792969 L25.9179688,14.7792969 C29.8378906,14.7792969 31.9824219,16.90625 31.9824219,20.28125 C31.9824219,23.6738281 29.8203125,25.8007812 25.9179688,25.8007812 L21.2421875,25.8007812 L21.2421875,14.7792969 Z M28.7128906,33.4648438 L28.7128906,31.6015625 L21.2421875,31.6015625 L21.2421875,27.9101562 L26.4628906,27.9101562 C31.296875,27.9101562 34.4433594,24.7636719 34.4433594,20.28125 C34.4433594,15.8164062 31.3144531,12.6347656 26.4804688,12.6347656 L18.8515625,12.6347656 L18.8515625,25.8007812 L15.3359375,25.8007812 L15.3359375,27.9101562 L18.8515625,27.9101562 L18.8515625,31.6015625 L15.3359375,31.6015625 L15.3359375,33.4648438 L18.8515625,33.4648438 L18.8515625,38 L21.2421875,38 L21.2421875,33.4648438 L28.7128906,33.4648438 Z" id="Combined-Shape"></path>
        </g>
    </g>
</svg>

<svg width="50" height="50" viewBox="0 0 50 50" xmlns="http://www.w3.org/2000/svg"><path d="M25 50c13.807 0 25-11.193 25-25S38.807 0 25 0 0 11.193 0 25s11.193 25 25 25zm-3.758-35.22h4.676c3.92 0 6.064 2.126 6.064 5.501 0 3.393-2.162 5.52-6.064 5.52h-4.676V14.779zm7.47 18.685v-1.863h-7.47V27.91h5.22c4.835 0 7.981-3.146 7.981-7.629 0-4.465-3.129-7.646-7.963-7.646h-7.628V25.8h-3.516v2.11h3.516v3.69h-3.516v1.864h3.516V38h2.39v-4.535h7.47z" fill="#000" fill-rule="evenodd"/></svg>
